app/client/src/assets/icons/blueprintjs/16px/calculator.svg

<svg xmlns="http://www.w3.org/2000/svg" xml:space="preserve" viewBox="0 0 16 16"><path fill-rule="evenodd" d="M13 0H3c-.55 0-1 .45-1 1v14c0 .55.45 1 1 1h10c.55 0 1-.45 1-1V1c0-.55-.45-1-1-1zM6 14H4v-2h2v2zm0-3H4V9h2v2zm0-3H4V6h2v2zm3 6H7v-2h2v2zm0-3H7V9h2v2zm0-3H7V6h2v2zm3 6h-2V9h2v5zm0-6h-2V6h2v2zm0-3H4V2h8v3z" clip-rule="evenodd"/></svg>

<?xml version="1.0" encoding="utf-8"?>
<!-- Generator: Adobe Illustrator 18.0.0, SVG Export Plug-In . SVG Version: 6.00 Build 0)  -->
<svg version="1.1" id="Layer_1" xmlns="http://www.w3.org/2000/svg" xmlns:xlink="http://www.w3.org/1999/xlink" x="0px" y="0px"
	 viewBox="0 0 16 16" enable-background="new 0 0 16 16" xml:space="preserve">
<g id="calculator">
	<g>
		<path fill-rule="evenodd" clip-rule="evenodd" d="M13,0H3C2.45,0,2,0.45,2,1v14c0,0.55,0.45,1,1,1h10c0.55,0,1-0.45,1-1V1
			C14,0.45,13.55,0,13,0z M6,14H4v-2h2V14z M6,11H4V9h2V11z M6,8H4V6h2V8z M9,14H7v-2h2V14z M9,11H7V9h2V11z M9,8H7V6h2V8z M12,14
			h-2V9h2V14z M12,8h-2V6h2V8z M12,5H4V2h8V5z"/>
	</g>
</g>
</svg>
